X: 3659
T: Bill The Weaver's
R: slide
M: 12/8
K: Dmajor
g3|:fed B2d A2d F2A|BAF D2F E3 g3|
fed Bcd A2d F2A|1 BAF E2F D3 g3:|2 A2F EFE D3 D3||
f3 a2a baf a2f|fdf a2d g3 bge|
fdf a2a baf a2f|fef a2f d3 d2e|
fef a2a baf a2f|fef afd g3 gfe|
fga efg fed Bcd|ABA GFE D3 g3||

